X: 479
P: Longways for as eight
M: 6/4
L: 1/4
K: C
c |\
c>dc G2g | e3- e2c | c>dc G2_B | A3- A2F |\
c |\
e>fg g>ag | e>fg g>fe | f2g a2b | c'3- c'2g |\
c'2g e>fg | a2f d>ef |
g2e c>de | d2B G>AB |\
c3 A>Bc | d3 B>AG | c>de d2c | c3- c2 |]

